configs/network-logos/arbitrum-nova.svg

<svg width="95" height="24" viewBox="0 0 95 24" fill="none" xmlns="http://www.w3.org/2000/svg">
<g clip-path="url(#clip0_11424_10340)">
<path d="M30.8085 6.18035C31.0293 6.18035 31.221 6.22428 31.3733 6.31785C31.5257 6.41142 31.678 6.5883 31.8252 6.85361L34.7385 12.145C34.7681 12.2037 34.7727 12.2528 34.7579 12.2922C34.743 12.3315 34.6991 12.3509 34.6301 12.3509H33.5101C33.4119 12.3509 33.3429 12.3116 33.3087 12.238L32.6845 11.1031H28.5428L27.9334 12.238C27.8941 12.3167 27.8256 12.3509 27.732 12.3509H26.5875C26.5087 12.3509 26.4648 12.3315 26.45 12.2922C26.4351 12.2528 26.4403 12.2037 26.4694 12.145L29.3632 6.84904C29.5104 6.58373 29.6531 6.40686 29.7957 6.31329C29.9384 6.21971 30.1004 6.17578 30.287 6.17578H30.8079V6.18092L30.8085 6.18035ZM29.0939 10.0761H32.1299L30.7297 7.49206C30.7052 7.45269 30.6755 7.42816 30.6316 7.42816H30.5774C30.538 7.42816 30.5038 7.44756 30.4793 7.49206L29.0939 10.0761Z" fill="#213147"/>
<path d="M41.155 6.18026C41.8328 6.18026 42.3144 6.3326 42.6094 6.63728C42.9043 6.94195 43.0515 7.39384 43.0515 7.9935V8.49445C43.0515 9.00053 42.9483 9.39821 42.7423 9.69319C42.5358 9.98817 42.202 10.1747 41.7353 10.258L43.2432 12.1249C43.2729 12.1546 43.2826 12.1985 43.2678 12.2573C43.2581 12.3161 43.209 12.3457 43.1251 12.3457H41.9903C41.9116 12.3457 41.8625 12.336 41.8328 12.3212C41.8032 12.3018 41.7741 12.2721 41.7444 12.2327L40.3494 10.4001H37.5V12.154C37.5 12.2818 37.4361 12.3457 37.3083 12.3457H36.3555C36.218 12.3457 36.1541 12.2818 36.1541 12.154V6.445C36.1541 6.26812 36.2425 6.17969 36.4194 6.17969H41.1556L41.155 6.18026ZM37.5046 9.32461H40.88C41.1795 9.32461 41.3912 9.26071 41.5139 9.1329C41.6366 9.0051 41.7005 8.80882 41.7005 8.54351V8.17493C41.7005 7.90962 41.6366 7.71335 41.5139 7.58555C41.3912 7.45774 41.1795 7.39384 40.88 7.39384H37.6181C37.5394 7.39384 37.5051 7.42807 37.5051 7.50167V9.32461H37.5046Z" fill="#213147"/>
<path d="M50.426 6.18042C51.0302 6.18042 51.4627 6.30309 51.7183 6.54387C51.9739 6.78464 52.1017 7.14809 52.1017 7.63478V8.05756C52.1017 8.54881 51.9151 8.92196 51.5369 9.17757C51.9397 9.41321 52.1462 9.79149 52.1462 10.3124V10.8236C52.1462 11.0593 52.1217 11.2709 52.0675 11.4575C52.0133 11.6441 51.93 11.8061 51.8073 11.9391C51.6846 12.0714 51.5272 12.1747 51.3257 12.2438C51.1243 12.3128 50.8784 12.3516 50.584 12.3516H45.3469C45.17 12.3516 45.0815 12.2632 45.0815 12.0863V6.4463C45.0815 6.26943 45.17 6.18099 45.3469 6.18099H50.4265L50.426 6.18042ZM46.4321 8.74508H50.0477C50.3427 8.74508 50.5389 8.70115 50.6468 8.61271C50.7546 8.52428 50.8043 8.39647 50.8043 8.22473V7.92519C50.8043 7.74318 50.7552 7.61081 50.6519 7.52237C50.5486 7.43907 50.3815 7.39457 50.1555 7.39457H46.5496C46.4709 7.39457 46.4366 7.43394 46.4366 7.50754V8.74565H46.4315L46.4321 8.74508ZM46.4321 9.70305V11.0148C46.4321 11.0935 46.4714 11.1277 46.545 11.1277H50.1607C50.3963 11.1277 50.5635 11.0838 50.6616 10.9999C50.7597 10.9166 50.8139 10.7791 50.8139 10.592V10.2576C50.8139 10.0756 50.7597 9.93812 50.6519 9.84512C50.5441 9.75155 50.3427 9.70248 50.0477 9.70248H46.4321V9.70305Z" fill="#213147"/>
<path d="M55.4321 6.18042C55.5599 6.18042 55.6238 6.24432 55.6238 6.37213V12.1547C55.6238 12.2825 55.5599 12.3465 55.4321 12.3465H54.4792C54.3417 12.3465 54.2778 12.2825 54.2778 12.1547V6.37213C54.2778 6.24432 54.3469 6.18042 54.4792 6.18042H55.4321Z" fill="#213147"/>
<path d="M64.6682 6.18042C64.8057 6.18042 64.8696 6.24432 64.8696 6.37213V7.23652C64.8696 7.37403 64.8006 7.43793 64.6682 7.43793H61.9021V12.1542C61.9021 12.282 61.8382 12.3459 61.7104 12.3459H60.7473C60.6195 12.3459 60.5556 12.282 60.5556 12.1542V7.43793H57.7895C57.652 7.43793 57.5881 7.36889 57.5881 7.23652V6.37213C57.5881 6.24432 57.6572 6.18042 57.7895 6.18042H64.6676H64.6682Z" fill="#213147"/>
<path d="M71.6394 6.18026C72.3172 6.18026 72.7988 6.3326 73.0937 6.63728C73.3887 6.94195 73.5359 7.39384 73.5359 7.9935V8.49445C73.5359 9.00053 73.4327 9.39821 73.2267 9.69319C73.0201 9.98817 72.6864 10.1747 72.2196 10.258L73.7276 12.1249C73.7573 12.1546 73.767 12.1985 73.7522 12.2573C73.7425 12.3161 73.6934 12.3457 73.6095 12.3457H72.4747C72.3959 12.3457 72.3469 12.336 72.3172 12.3212C72.2875 12.3018 72.2584 12.2721 72.2288 12.2327L70.8338 10.4001H67.9844V12.154C67.9844 12.2818 67.9205 12.3457 67.7927 12.3457H66.8398C66.7023 12.3457 66.6384 12.2818 66.6384 12.154V6.445C66.6384 6.26812 66.7269 6.17969 66.9037 6.17969H71.64L71.6394 6.18026ZM67.9941 9.32461H71.3695C71.6691 9.32461 71.8807 9.26071 72.0034 9.1329C72.1261 9.0051 72.19 8.80882 72.19 8.54351V8.17493C72.19 7.90962 72.1261 7.71335 72.0034 7.58555C71.8807 7.45774 71.6691 7.39384 71.3695 7.39384H68.1076C68.0289 7.39384 67.9946 7.42807 67.9946 7.50167V9.32461H67.9941Z" fill="#213147"/>
<path d="M76.5971 6.18042C76.7249 6.18042 76.7888 6.24432 76.7888 6.37213V9.88962C76.7888 10.1253 76.8082 10.3221 76.8476 10.4744C76.8869 10.6319 76.9508 10.7546 77.0393 10.843C77.1277 10.9366 77.2458 11.0005 77.3982 11.0347C77.5505 11.0741 77.7371 11.0935 77.9682 11.0935H80.4096C80.6407 11.0935 80.8272 11.0741 80.9796 11.0347C81.1319 10.9954 81.25 10.9315 81.3384 10.843C81.4269 10.7495 81.4908 10.6268 81.525 10.4744C81.5593 10.317 81.5792 10.1258 81.5792 9.88962V6.37213C81.5792 6.24432 81.6431 6.18042 81.7709 6.18042H82.734C82.8618 6.18042 82.9257 6.24432 82.9257 6.37213V10.0226C82.9257 10.4453 82.8818 10.8037 82.7934 11.1032C82.7049 11.3982 82.5623 11.639 82.366 11.8255C82.1697 12.0121 81.9141 12.145 81.5998 12.2283C81.2854 12.3116 80.9071 12.351 80.4598 12.351H77.9197C77.4723 12.351 77.0941 12.3116 76.7848 12.2283C76.4756 12.145 76.22 12.0121 76.0231 11.8255C75.8268 11.639 75.6842 11.3982 75.5906 11.1032C75.4971 10.8082 75.4531 10.4448 75.4531 10.0226V6.37213C75.4531 6.24432 75.5222 6.18042 75.6545 6.18042H76.5977H76.5971Z" fill="#213147"/>
<path d="M86.7125 6.18042C86.8403 6.18042 86.9533 6.19012 87.0469 6.20495C87.1404 6.22435 87.2237 6.25402 87.2928 6.30823C87.3618 6.35729 87.4251 6.42633 87.4845 6.50963C87.5387 6.59293 87.5974 6.7059 87.6562 6.84854L89.4888 11.0787C89.5134 11.1329 89.5527 11.1574 89.6115 11.1574H89.7194C89.7781 11.1574 89.8175 11.1329 89.842 11.0787L91.6747 6.84854C91.7334 6.7059 91.7928 6.59293 91.8464 6.50963C91.9006 6.42633 91.9645 6.35729 92.0381 6.30823C92.1071 6.25916 92.1904 6.22492 92.2789 6.20495C92.3725 6.18555 92.4803 6.18042 92.6081 6.18042H93.5512C93.8559 6.18042 94.0624 6.24946 94.1703 6.38696C94.2781 6.52447 94.3278 6.76011 94.3278 7.09446V12.1547C94.3278 12.2825 94.2587 12.3465 94.1263 12.3465H93.2271C93.0993 12.3465 93.0354 12.2825 93.0354 12.1547V7.55147C93.0354 7.49271 93.0109 7.46304 92.9664 7.46304H92.8877C92.8289 7.46304 92.7895 7.48757 92.7747 7.53207L90.9963 11.4821C90.9272 11.6395 90.8536 11.777 90.78 11.8849C90.7064 11.9927 90.6277 12.0811 90.5444 12.1553C90.4611 12.2244 90.3624 12.278 90.2545 12.3077C90.1467 12.3373 90.0189 12.3516 89.8711 12.3516H89.4483C89.3011 12.3516 89.1733 12.3368 89.0649 12.3077C88.9571 12.278 88.8584 12.2289 88.7751 12.1553C88.6918 12.0863 88.6079 11.9933 88.5394 11.8849C88.4658 11.777 88.3922 11.6441 88.3232 11.4821L86.5448 7.53207C86.5254 7.48301 86.4906 7.46304 86.4318 7.46304H86.3531C86.304 7.46304 86.284 7.49271 86.284 7.55147V12.1547C86.284 12.2825 86.2201 12.3465 86.0923 12.3465H85.1931C85.0556 12.3465 84.9917 12.2825 84.9917 12.1547V7.09446C84.9917 6.76011 85.0459 6.52447 85.1492 6.38696C85.257 6.24946 85.4635 6.18042 85.7734 6.18042H86.7119H86.7125Z" fill="#213147"/>
<path d="M27.3646 14.1738C27.4479 14.1738 27.5169 14.179 27.5711 14.1835C27.6253 14.1887 27.6744 14.2029 27.7183 14.2275C27.7577 14.252 27.8016 14.2817 27.8364 14.321C27.8758 14.3604 27.9197 14.4146 27.9642 14.4785L29.9001 17.0186C29.915 17.0432 29.9344 17.0529 29.9692 17.0529H30.0182C30.0479 17.0529 30.0576 17.0335 30.0576 16.9987V14.2817C30.0576 14.2029 30.097 14.1687 30.1706 14.1687H30.716C30.7948 14.1687 30.829 14.2081 30.829 14.2817V17.2685C30.829 17.4797 30.7896 17.6223 30.716 17.6959C30.6373 17.7695 30.5198 17.8089 30.3623 17.8089H29.915C29.8362 17.8089 29.7678 17.8037 29.7136 17.7992C29.6594 17.7946 29.6103 17.7798 29.5709 17.7598C29.5316 17.7404 29.4876 17.7107 29.4483 17.6662C29.4089 17.6269 29.365 17.5727 29.3108 17.5042L27.3703 14.9641C27.3509 14.9395 27.3264 14.9298 27.3012 14.9298H27.2522C27.2225 14.9298 27.2128 14.9492 27.2128 14.984V17.701C27.2128 17.7798 27.1734 17.814 27.0998 17.814H26.5544C26.4756 17.814 26.4363 17.7746 26.4363 17.701V14.7142C26.4363 14.503 26.4756 14.3604 26.5493 14.2868C26.628 14.2132 26.7455 14.1738 26.903 14.1738H27.3646Z" fill="#213147"/>
<path d="M35.0781 14.1738C35.3434 14.1738 35.5642 14.1984 35.7513 14.2474C35.9379 14.2965 36.0902 14.3752 36.2032 14.4882C36.3213 14.596 36.4046 14.7387 36.4537 14.911C36.5079 15.0827 36.5324 15.2944 36.5324 15.5449V16.4389C36.5324 16.6894 36.5079 16.9005 36.4537 17.0774C36.3995 17.2543 36.3162 17.3969 36.2032 17.5048C36.0851 17.6126 35.9379 17.6913 35.7513 17.7404C35.5648 17.7895 35.3388 17.814 35.0781 17.814H33.4668C33.2015 17.814 32.9807 17.7895 32.7936 17.7404C32.6115 17.6913 32.4592 17.6126 32.3417 17.5048C32.2236 17.3969 32.1403 17.2543 32.0861 17.0774C32.0319 16.9005 32.0073 16.6894 32.0073 16.4389V15.5449C32.0073 15.2944 32.0319 15.0833 32.0861 14.911C32.1403 14.7393 32.2236 14.5966 32.3417 14.4882C32.4598 14.3804 32.607 14.2965 32.7936 14.2474C32.9756 14.1984 33.2015 14.1738 33.4668 14.1738H35.0781ZM32.8084 16.3847C32.8084 16.5223 32.8181 16.6352 32.8426 16.7237C32.8672 16.8172 32.9014 16.8908 32.9556 16.9445C33.0098 16.9987 33.0783 17.038 33.1667 17.0574C33.2551 17.082 33.3681 17.0917 33.501 17.0917H35.0484C35.1859 17.0917 35.2943 17.082 35.3828 17.0574C35.4712 17.0329 35.5402 16.9987 35.5939 16.9445C35.6481 16.8903 35.6823 16.8167 35.7068 16.7237C35.7314 16.6301 35.7411 16.5171 35.7411 16.3847V15.6037C35.7411 15.4661 35.7314 15.3532 35.7068 15.2647C35.6823 15.1712 35.6481 15.0976 35.5939 15.0439C35.5397 14.9897 35.4712 14.9504 35.3828 14.931C35.2943 14.9064 35.1813 14.8967 35.0484 14.8967H33.501C33.3635 14.8967 33.2551 14.9064 33.1667 14.931C33.0783 14.9555 33.0092 14.9897 32.9556 15.0439C32.9014 15.0981 32.8672 15.1717 32.8426 15.2647C32.8181 15.3583 32.8084 15.4713 32.8084 15.6037V16.3847Z" fill="#213147"/>
<path d="M37.8635 14.1738C37.8978 14.1738 37.9223 14.179 37.9371 14.1887C37.952 14.1984 37.9668 14.2183 37.9811 14.2429L39.509 17.0432C39.5187 17.0677 39.5387 17.0774 39.5729 17.0774H39.5974C39.622 17.0774 39.6414 17.0677 39.6562 17.0432L41.1596 14.2429C41.179 14.1989 41.2184 14.1738 41.2777 14.1738H41.9607C42.0001 14.1738 42.0297 14.1835 42.0343 14.2081C42.044 14.2326 42.0394 14.2571 42.0195 14.2914L40.3095 17.4209C40.2211 17.5829 40.1378 17.6862 40.0539 17.7404C39.9706 17.7946 39.8719 17.8191 39.7641 17.8191H39.4645C39.327 17.8191 39.2186 17.7946 39.1302 17.7404C39.0417 17.6862 38.9533 17.5829 38.8648 17.4209L37.1406 14.2914C37.1212 14.2571 37.1212 14.2275 37.1258 14.2081C37.1355 14.1835 37.16 14.1738 37.2045 14.1738H37.8629H37.8635Z" fill="#213147"/>
<path d="M44.309 14.1738C44.4414 14.1738 44.5498 14.1984 44.6433 14.2526C44.7318 14.3068 44.8202 14.41 44.9086 14.5669L46.6329 17.6965C46.6523 17.7307 46.6523 17.7604 46.6477 17.7798C46.638 17.8043 46.6135 17.814 46.5741 17.814H45.9111C45.8524 17.814 45.813 17.7895 45.793 17.745L45.4244 17.0717H42.9779L42.619 17.745C42.5945 17.7889 42.5551 17.814 42.5009 17.814H41.8231C41.7791 17.814 41.7495 17.8043 41.7443 17.7798C41.7392 17.7552 41.7392 17.7307 41.7592 17.6965L43.4691 14.5669C43.5576 14.4095 43.6409 14.3068 43.7247 14.2526C43.808 14.1984 43.9067 14.1738 44.0146 14.1738H44.3096H44.309ZM43.302 16.4732H45.0952L44.2651 14.9504C44.2502 14.9258 44.2308 14.9161 44.2063 14.9161H44.1766C44.1521 14.9161 44.1327 14.9258 44.1179 14.9504L43.3025 16.4732H43.302Z" fill="#213147"/>
<path d="M10.6364 1.48859C10.6951 1.48859 10.7493 1.50342 10.8035 1.53252L19.6221 6.62248C19.7254 6.68125 19.7893 6.78965 19.7893 6.90719V17.0865C19.7893 17.2046 19.7254 17.3125 19.6221 17.3712L10.8035 22.4658C10.7545 22.4954 10.6957 22.5097 10.6364 22.5097C10.577 22.5097 10.5234 22.4949 10.4692 22.4658L1.65576 17.3769C1.55249 17.3182 1.48859 17.2098 1.48859 17.0922V6.90776C1.48859 6.78965 1.55249 6.68182 1.65576 6.62305L10.4692 1.53309C10.5234 1.50342 10.577 1.48916 10.6364 1.48916M10.6364 0.000570559C10.322 0.000570559 10.0076 0.0838722 9.72746 0.246482L0.908901 5.3353C0.348612 5.65938 0 6.25903 0 6.90776V17.0871C0 17.7358 0.348612 18.3349 0.908901 18.6641L9.72746 23.7541C10.0076 23.9161 10.322 24 10.6364 24C10.9507 24 11.2651 23.9167 11.5453 23.7541L20.3638 18.6641C20.9287 18.3401 21.2727 17.7404 21.2727 17.0871V6.90776C21.2727 6.25903 20.9241 5.65995 20.3638 5.33073L11.5453 0.240776C11.2651 0.0787372 10.9507 0 10.6364 0V0.000570559Z" fill="#FF7700"/>
<path d="M8.38607 6.78442H7.2364C7.14796 6.78442 7.07436 6.83863 7.04469 6.92193L3.33548 17.0767C3.31095 17.1458 3.36002 17.2142 3.43362 17.2142H4.5833C4.67173 17.2142 4.74534 17.16 4.775 17.0767L8.47907 6.91679C8.50874 6.85289 8.45968 6.78442 8.3855 6.78442H8.38607Z" fill="#FF7700"/>
<path d="M9.87988 10.7248C9.84565 10.6363 9.71785 10.6363 9.68818 10.7248L9.08852 12.3657C9.07368 12.4096 9.07368 12.4593 9.08852 12.5083L10.7591 17.0825C10.7888 17.1658 10.867 17.22 10.9508 17.22H12.1005C12.1741 17.22 12.2232 17.151 12.1986 17.0825L9.87988 10.7253V10.7248Z" fill="#FF7700"/>
<path d="M10.4007 6.78442H9.25104C9.1626 6.78442 9.089 6.83863 9.05933 6.92193L5.35526 17.0767C5.33072 17.1458 5.37979 17.2142 5.4534 17.2142H6.60307C6.69151 17.2142 6.76511 17.16 6.79478 17.0767L10.4988 6.91679C10.5234 6.85289 10.4743 6.78442 10.4007 6.78442Z" fill="#FF7700"/>
<path d="M10.8869 7.95866C10.8526 7.87022 10.7248 7.87022 10.6952 7.95866L10.0961 9.59959C10.0813 9.64352 10.0813 9.69316 10.0961 9.74223L12.7737 17.0773C12.8034 17.1606 12.8816 17.2148 12.9654 17.2148H14.1151C14.1887 17.2148 14.2378 17.1458 14.2132 17.0773L10.8875 7.95923L10.8869 7.95866Z" fill="#FF7700"/>
<path d="M17.8384 6.78442H16.6887C16.6003 6.78442 16.5267 6.83863 16.497 6.92193L13.8148 14.257C13.8 14.301 13.8 14.3506 13.8148 14.3997L14.4145 16.0406C14.4487 16.129 14.5765 16.129 14.6062 16.0406L17.932 6.9225C17.9565 6.85346 17.9075 6.78499 17.8384 6.78499V6.78442Z" fill="#FF7700"/>
<path d="M13.4069 13.2745C13.4412 13.363 13.569 13.363 13.5986 13.2745L15.9174 6.92193C15.9419 6.85289 15.8929 6.78442 15.8193 6.78442H14.6696C14.5811 6.78442 14.5075 6.83863 14.4779 6.92193L12.8073 11.4961C12.7924 11.54 12.7924 11.5897 12.8073 11.6387L13.4064 13.2745H13.4069Z" fill="#FF7700"/>
</g>
<defs>
<clipPath id="clip0_11424_10340">
<rect width="95" height="24" fill="white"/>
</clipPath>
</defs>
</svg>

<svg xmlns="http://www.w3.org/2000/svg" fill="none" viewBox="0 0 95 24">
  <g clip-path="url(#arbitrum-nova_svg__a)">
    <path fill="#213147" d="M30.808 6.18c.221 0 .413.044.565.138.153.093.305.27.452.536l2.914 5.291c.03.059.034.108.019.147-.015.04-.059.059-.128.059h-1.12c-.098 0-.167-.04-.201-.113l-.624-1.135h-4.142l-.61 1.135c-.039.079-.107.113-.201.113h-1.145c-.078 0-.122-.02-.137-.059-.015-.04-.01-.088.02-.147l2.893-5.296c.147-.265.29-.442.433-.536a.87.87 0 0 1 .491-.137h.52v.005h.002Zm-1.714 3.896h3.036l-1.4-2.584c-.025-.04-.055-.064-.098-.064h-.055c-.039 0-.073.02-.098.064l-1.385 2.584ZM41.155 6.18c.678 0 1.16.153 1.454.457.295.305.442.757.442 1.357v.5c0 .507-.103.904-.309 1.2-.206.294-.54.48-1.007.564l1.508 1.867c.03.03.04.073.025.132-.01.06-.059.089-.143.089H41.99a.369.369 0 0 1-.157-.025.37.37 0 0 1-.089-.088L40.35 10.4H37.5v1.754c0 .128-.064.192-.192.192h-.953c-.137 0-.2-.064-.2-.192V6.445c0-.177.087-.265.264-.265h4.737-.001Zm-3.65 3.145h3.375c.3 0 .511-.064.634-.192s.186-.324.186-.59v-.368c0-.265-.063-.462-.186-.59-.123-.127-.335-.191-.634-.191h-3.262c-.079 0-.113.034-.113.108v1.823ZM50.426 6.18c.604 0 1.037.123 1.292.364.256.24.384.604.384 1.09v.424c0 .49-.187.864-.565 1.12.403.235.61.613.61 1.134v.512c0 .235-.025.447-.08.633a1.18 1.18 0 0 1-.26.482c-.122.132-.28.236-.481.305a2.293 2.293 0 0 1-.742.108h-5.237c-.177 0-.266-.089-.266-.266v-5.64c0-.177.089-.265.266-.265h5.08-.001Zm-3.994 2.565h3.616c.295 0 .49-.044.599-.132.108-.089.157-.217.157-.388v-.3c0-.182-.049-.314-.152-.403-.103-.083-.27-.127-.496-.127H46.55c-.08 0-.113.039-.113.113v1.238h-.005Zm0 .958v1.312c0 .079.04.113.113.113h3.616c.235 0 .402-.044.5-.128.099-.083.153-.22.153-.408v-.334c0-.182-.054-.32-.162-.413-.108-.093-.31-.143-.604-.143h-3.616v.001Zm9-3.523c.128 0 .192.064.192.192v5.783c0 .128-.064.192-.192.192h-.953c-.137 0-.201-.064-.201-.192V6.372c0-.128.069-.192.201-.192h.953Zm9.236 0c.138 0 .202.064.202.192v.865c0 .137-.07.2-.202.2h-2.766v4.717c0 .128-.064.192-.192.192h-.963c-.127 0-.191-.064-.191-.192V7.438h-2.767c-.137 0-.2-.07-.2-.201v-.865c0-.128.068-.192.2-.192h6.879Zm6.972 0c.677 0 1.159.153 1.454.457.295.305.442.757.442 1.357v.5c0 .507-.103.904-.31 1.2-.206.294-.54.48-1.006.564l1.508 1.867c.03.03.039.073.024.132-.01.06-.059.089-.142.089h-1.135a.368.368 0 0 1-.158-.025.367.367 0 0 1-.088-.088L70.834 10.4h-2.85v1.754c0 .128-.063.192-.191.192h-.953c-.138 0-.202-.064-.202-.192V6.445c0-.177.089-.265.266-.265h4.736Zm-3.646 3.145h3.376c.3 0 .51-.064.633-.192s.187-.324.187-.59v-.368c0-.265-.064-.462-.187-.59-.122-.127-.334-.191-.633-.191h-3.262c-.08 0-.113.034-.113.108v1.823Zm8.603-3.145c.128 0 .192.064.192.192V9.89c0 .235.02.432.059.584.039.158.103.28.191.369a.682.682 0 0 0 .36.192c.151.04.338.059.57.059h2.44c.232 0 .418-.02.57-.06a.762.762 0 0 0 .36-.191.77.77 0 0 0 .186-.369 2.77 2.77 0 0 0 .054-.584V6.372c0-.128.064-.192.192-.192h.963c.128 0 .192.064.192.192v3.65c0 .423-.044.782-.133 1.081a1.612 1.612 0 0 1-.427.723 1.73 1.73 0 0 1-.766.402 4.505 4.505 0 0 1-1.14.123h-2.54c-.448 0-.826-.04-1.135-.123a1.744 1.744 0 0 1-.762-.402 1.667 1.667 0 0 1-.432-.723c-.094-.295-.138-.658-.138-1.08v-3.65c0-.129.07-.193.201-.193h.944Zm10.116 0c.127 0 .24.01.334.025a.59.59 0 0 1 .246.103c.069.05.132.118.191.202.055.083.113.196.172.339l1.833 4.23a.123.123 0 0 0 .123.078h.107a.122.122 0 0 0 .123-.078l1.833-4.23a2.14 2.14 0 0 1 .171-.34.67.67 0 0 1 .432-.305c.095-.018.202-.024.33-.024h.943c.305 0 .511.07.62.207.107.137.157.373.157.707v5.06c0 .129-.07.193-.202.193h-.899c-.128 0-.192-.064-.192-.192V7.55c0-.058-.024-.088-.069-.088h-.078c-.06 0-.099.025-.113.07l-1.779 3.95a2.554 2.554 0 0 1-.216.402 1.462 1.462 0 0 1-.236.27.78.78 0 0 1-.29.153c-.107.03-.235.044-.383.044h-.423c-.147 0-.275-.015-.383-.044a.72.72 0 0 1-.29-.153 1.163 1.163 0 0 1-.236-.27 2.343 2.343 0 0 1-.216-.403l-1.778-3.95c-.02-.049-.054-.069-.113-.069h-.079c-.049 0-.069.03-.069.088v4.604c0 .128-.064.192-.192.192h-.899c-.137 0-.201-.064-.201-.192v-5.06c0-.335.054-.57.157-.708.108-.138.314-.207.624-.207h.939Zm-59.348 7.994c.083 0 .152.005.206.01a.37.37 0 0 1 .147.043c.04.025.084.055.118.094.04.04.084.094.128.158l1.936 2.54c.015.024.034.034.07.034h.048c.03 0 .04-.02.04-.054v-2.717c0-.08.039-.113.113-.113h.545c.079 0 .113.04.113.113v2.986c0 .212-.04.354-.113.428-.079.073-.196.113-.354.113h-.447c-.079 0-.147-.005-.201-.01a.391.391 0 0 1-.266-.133 1.954 1.954 0 0 1-.137-.162l-1.94-2.54a.085.085 0 0 0-.07-.034h-.049c-.03 0-.04.02-.04.054v2.717c0 .079-.039.113-.112.113h-.546c-.078 0-.118-.04-.118-.113v-2.987c0-.211.04-.354.113-.427.079-.074.197-.113.354-.113h.462Zm7.713 0c.265 0 .486.024.673.073.187.05.34.128.452.241a.89.89 0 0 1 .25.423c.055.172.08.383.08.634v.894c0 .25-.025.462-.08.638a.97.97 0 0 1-.25.428 1.047 1.047 0 0 1-.452.235c-.186.05-.412.074-.673.074h-1.611c-.265 0-.486-.024-.673-.074a1.07 1.07 0 0 1-.452-.235.931.931 0 0 1-.256-.428 2.195 2.195 0 0 1-.079-.638v-.894c0-.25.025-.462.08-.634a.946.946 0 0 1 .255-.423c.118-.108.265-.191.452-.24.182-.05.408-.074.673-.074h1.611Zm-2.27 2.21c0 .138.01.251.035.34a.467.467 0 0 0 .113.22.416.416 0 0 0 .21.113c.09.025.202.035.335.035h1.547c.138 0 .246-.01.335-.035a.456.456 0 0 0 .21-.112.471.471 0 0 0 .114-.221 1.36 1.36 0 0 0 .034-.34v-.78c0-.138-.01-.25-.034-.34a.466.466 0 0 0-.113-.22.416.416 0 0 0-.211-.113 1.293 1.293 0 0 0-.335-.034h-1.547c-.137 0-.246.01-.334.034a.455.455 0 0 0-.211.113.472.472 0 0 0-.113.22 1.365 1.365 0 0 0-.035.34v.78Zm5.056-2.21c.034 0 .058.005.073.015.015.01.03.03.044.054l1.528 2.8c.01.025.03.034.064.034h.024c.025 0 .044-.01.06-.034l1.503-2.8c.019-.044.058-.07.118-.07h.683c.04 0 .069.01.073.035.01.025.005.05-.014.083l-1.71 3.13c-.089.162-.172.265-.256.32a.523.523 0 0 1-.29.078h-.3a.623.623 0 0 1-.334-.079c-.088-.054-.177-.157-.265-.32l-1.724-3.129a.114.114 0 0 1-.015-.083c.01-.024.034-.034.079-.034h.658Zm6.445 0a.64.64 0 0 1 .334.079c.089.054.177.157.266.314l1.724 3.13c.02.034.02.063.015.083-.01.024-.035.034-.074.034h-.663c-.059 0-.098-.024-.118-.069l-.369-.673h-2.446l-.359.673a.128.128 0 0 1-.118.069h-.678c-.044 0-.074-.01-.079-.034a.107.107 0 0 1 .015-.084l1.71-3.13c.089-.157.172-.26.256-.313a.523.523 0 0 1 .29-.08h.295-.001Zm-1.007 2.3h1.793l-.83-1.524a.064.064 0 0 0-.059-.034h-.03a.064.064 0 0 0-.058.034l-.816 1.523Z"/>
    <path fill="#F70" d="M10.636 1.489c.06 0 .113.014.168.044l8.818 5.09a.328.328 0 0 1 .167.284v10.18a.327.327 0 0 1-.167.284l-8.819 5.095a.344.344 0 0 1-.334 0l-8.813-5.09a.328.328 0 0 1-.167-.284V6.908c0-.118.063-.226.167-.285l8.813-5.09a.337.337 0 0 1 .167-.044m0-1.488c-.314 0-.628.083-.909.245L.91 5.336A1.82 1.82 0 0 0 0 6.907v10.18c0 .648.349 1.247.909 1.576l8.818 5.09a1.813 1.813 0 0 0 1.818 0l8.819-5.09c.565-.324.909-.924.909-1.577V6.907c0-.648-.349-1.247-.91-1.576L11.546.24a1.813 1.813 0 0 0-.91-.24Z"/>
    <path fill="#F70" d="M8.386 6.784h-1.15a.201.201 0 0 0-.191.138l-3.71 10.155a.102.102 0 0 0 .099.137h1.15a.201.201 0 0 0 .191-.137l3.704-10.16c.03-.064-.02-.133-.093-.133Zm1.494 3.941c-.034-.089-.162-.089-.192 0l-.6 1.64a.234.234 0 0 0 0 .143l1.671 4.575c.03.083.108.137.192.137h1.15a.102.102 0 0 0 .098-.137l-2.32-6.358Zm.52-3.941H9.252a.201.201 0 0 0-.192.138L5.355 17.077a.102.102 0 0 0 .098.137h1.15a.201.201 0 0 0 .192-.137l3.704-10.16c.024-.064-.025-.133-.098-.133Zm.487 1.175c-.034-.089-.162-.089-.192 0l-.599 1.64a.235.235 0 0 0 0 .143l2.678 7.335c.03.084.108.138.191.138h1.15a.102.102 0 0 0 .098-.138L10.888 7.96h-.001Zm6.951-1.175h-1.15a.201.201 0 0 0-.191.138l-2.682 7.335a.235.235 0 0 0 0 .143l.6 1.64c.034.089.162.089.191 0l3.326-9.117a.101.101 0 0 0-.094-.138Zm-4.431 6.49c.034.089.162.089.192 0l2.318-6.352a.102.102 0 0 0-.098-.138h-1.15a.201.201 0 0 0-.191.138l-1.67 4.574a.233.233 0 0 0 0 .143l.598 1.636Z"/>
  </g>
  <defs>
    <clipPath id="arbitrum-nova_svg__a">
      <path fill="#fff" d="M0 0h95v24H0z"/>
    </clipPath>
  </defs>
</svg>
